!!!!SEGMENT: pl-wtm--r-1350--003_stefani-jozef--fraszka-muzyczna-molto-allegro.krn
!!!cenid: 18xx:1852
!!!COM: Stefani, Józef
!!!COM-rismID: pe30024097
!!!CDT: 1800/04/16-1876/03/19
!!!CNT: Polish
!!!GTL: Fraszka muzyczna
!!!OTL: Molto allegro
!!!PDT:
!!!AGN: Secular
!!!SMS-siglum: PL-Wtm
!!!SMS-shelfmark: R 1350
!!!SMS-shelfwork: 003 G
!!!SMS-variant:
!!!SMS-altvar:
!!!NIFC-rismSourceID: 1001119463
!!!NIFC-islandoraID: pl-wtm:25286
!!!URL-pdf-islandora: https://repozytorium.nifc.pl/islandora/object/pl-wtm%3A25286/datastream/PDF/view
!!!URL-scan: https://polish.musicsources.pl/pl/lokalizacje/galeria/rekopisy/6202 @EN{Scan on Polish Music Sources Website} @PL{Skany w portalu Dziedzictwo Muzyki Polskiej w otwartym dostępie}
!!!ONB-nifc: UWAGA: skan 0004. Następna Fraszka: Mazur chłopski
!!!AIN: 1 forte
!!!key:
**kern	**fing	**kern	**fing	**dynam
*part1	*	*part1	*	*part1
*staff2	*	*staff1	*	*
*Iforte	*	*Iforte	*	*
*I"Fortepiano	*	*I"Fortepiano	*	*
*I'pf	*	*pf	*	*
*clefG2	*	*clefG2	*	*
*k[f#]	*	*k[f#]	*	*
*G:	*	*G:	*	*
*M2/2	*	*M2/2	*	*
*met(c|)	*	*met(c|)	*	*
=1	=1	=1	=1	=1
*	*below	*	*	*
!	!	!LO:TX:a:t=P:all\right:problem	!	!
!	!	!LO:TX:i:a:t=molto allegro	!	!LO:DY:b:t=for:rj
(<8g/L	5	(>8gg\L	1	f
8a/	.	8aa\	.	.
8b/	.	8bb\	.	.
8cc/J	.	8ccc\J	.	.
8dd/L	.	8ddd\L	.	.
8cc/	.	8ccc\	.	.
8b/	.	8bb\	.	.
8a/J)	.	8aa\J)	.	.
=2	=2	=2	=2	=2
*	*above	*	*	*
4g'</	5	4gg'>\	1	.
4b'</	3	4bb'>\	3	.
4dd'>\	1	4ddd'>\	5	.
4r	.	4r	.	.
!!LO:LB:g=original
=3	=3	=3	=3	=3
(>8a\L	5	(>8aa\L	1	.
8b\	.	8bb\	.	.
8cc\	.	8ccc\	.	.
8dd\J	.	8ddd\J	.	.
8ee\L	.	8eee\L	.	.
8dd\	.	8ddd\	.	.
8cc\	.	8ccc\	.	.
8b\J)	.	8bb\J)	.	.
=4	=4	=4	=4	=4
4a'>\	.	4aa'>\	.	.
4cc'>\	.	4ccc'>\	.	.
4ee'>\	.	4eee'>\	.	.
4r	.	4r	.	.
=5	=5	=5	=5	=5
(<8g/L	5	(>8gg\L	1	.
8a/	.	8aa\	.	.
8b/	.	8bb\	.	.
8cc/J	.	8ccc\J	.	.
8dd/L	.	8ddd\L	.	.
8cc/	.	8ccc\	.	.
8b/	.	8bb\	.	.
!	!	!LO:TX:t=P:problem=skreślony takt po tym takcie	!	!
8a/J)	.	8aa\J)	.	.
!!LO:LB:g=original
=6	=6	=6	=6	=6
4g'</	.	4gg'>\	.	.
4b'</	.	4bb'>\	.	.
4dd'</	.	4ddd'>\	.	.
4r	.	4r	.	.
=7	=7	=7	=7	=7
(<8d/L	5	(>8dd\L	1	.
8e/	.	8ee\	.	.
8f#X/	.	8ff#X\	.	.
8g/J	.	8gg\J	.	.
8a/L	.	8aa\L	.	.
8g/	.	8gg\	.	.
8f#/	.	8ff#\	.	.
8e/J)	.	8ee\J)	.	.
!!LO:LB:g=original
=8	=8	=8	=8	=8
4d/	5	4dd\	1	.
4f#X/	3	4ff#X\	3	.
4a/	1	4aa\	5	.
4r	.	4r	.	.
=9	=9	=9	=9	=9
!LO:TX:a:t=P:problem=łuk kończy się nad nutami	!	!	!	!
(<8g/L	5	(>8gg\L	1	.
8a/	.	8aa\	.	.
8b/	.	8bb\	.	.
8cc/J	.	8ccc\J	1	.
8dd\L	.	8ddd\L	.	.
8ee\	3	8eee\	.	.
8ff#\	.	8fff#\	.	.
8gg\J)	.	8ggg\J)	.	.
=10	=10	=10	=10	=10
4g'</	5	4gg'>\	1	.
4b'</	3	4bb'>\	3	.
4g'</	5	4gg'>\	1	.
4r	.	4r	.	.
==	==	==	==	==
*-	*-	*-	*-	*-
!!!system-decoration: {(s1,s2)}
!!!RDF**kern: > = above
!!!RDF**kern: < = below
!!!EED: Antoni Szymański
!!!EEV: 2021-05-04
!!!ENC: Andrzej Gręziak
!!!END: 2021-04-10
